src/pos-icons/format-page-break.svg

<svg height="24" viewBox="0 0 24 24" width="24" xmlns="http://www.w3.org/2000/svg"><path d="m18 20h-12v-2h-2v2a2 2 0 0 0 2 2h12a2 2 0 0 0 2-2v-2h-2zm-4-18h-8a2 2 0 0 0 -2 2v8h2v-8h8v4h4v4h2v-4zm-3 14h-3v-2h3zm5 0h-3v-2h3zm-13-2h3v2h-3zm18 2h-3v-2h3z"/></svg>

<?xml version="1.0" encoding="UTF-8"?><!DOCTYPE svg PUBLIC "-//W3C//DTD SVG 1.1//EN" "http://www.w3.org/Graphics/SVG/1.1/DTD/svg11.dtd"><svg xmlns="http://www.w3.org/2000/svg" xmlns:xlink="http://www.w3.org/1999/xlink" version="1.1" id="mdi-format-page-break" width="24" height="24" viewBox="0 0 24 24"><path d="M18,20H6V18H4V20A2,2 0 0,0 6,22H18A2,2 0 0,0 20,20V18H18V20M14,2H6A2,2 0 0,0 4,4V12H6V4H14V8H18V12H20V8L14,2M11,16H8V14H11V16M16,16H13V14H16V16M3,14H6V16H3V14M21,16H18V14H21V16Z" /></svg>
